sddm/themes/materia-dark/images/login.svg

<?xml version="1.0" encoding="UTF-8"?>
<svg width="24" height="24" version="1.1" xmlns="http://www.w3.org/2000/svg">
 <path d="m11 7-1.4 1.4 2.6 2.6h-10.2v2h10.2l-2.6 2.6 1.4 1.4 5-5zm9 12h-8v2h8c1.1 0 2-0.9 2-2v-14c0-1.1-0.9-2-2-2h-8v2h8z" fill="#fff"/>
</svg>

<svg xmlns="http://www.w3.org/2000/svg" width="24" height="24" version="1.1">
 <path style="fill:#ffffff" d="M 11,7 9.6,8.4 12.2,11 H 2 v 2 H 12.2 L 9.6,15.6 11,17 16,12 Z m 9,12 h -8 v 2 h 8 c 1.1,0 2,-0.9 2,-2 V 5 C 22,3.9 21.1,3 20,3 h -8 v 2 h 8 z"/>
</svg>
